icons/src/gear.svg

<!--Generator: Apple Native CoreSVG 341-->
<!DOCTYPE svg  PUBLIC '-//W3C//DTD SVG 1.1//EN'  'http://www.w3.org/Graphics/SVG/1.1/DTD/svg11.dtd'>
<svg version="1.1" viewBox="0 0 21.953 21.301" xmlns="http://www.w3.org/2000/svg">
 <rect width="21.953" height="21.301" opacity="0"/>
 <path d="m10.791 19.982c0.2442 0 0.4785-0.0098 0.7129-0.0293l0.5371 1.0059c0.127 0.2539 0.3516 0.3515 0.625 0.3222 0.2832-0.0488 0.4492-0.2343 0.4785-0.5078l0.166-1.1328c0.4688-0.1269 0.9083-0.293 1.3379-0.4883l0.8399 0.7617c0.2051 0.1954 0.459 0.2051 0.7031 0.0782 0.2441-0.1368 0.3418-0.3711 0.2832-0.6446l-0.2441-1.1132c0.3906-0.2735 0.7519-0.586 1.0937-0.9082l1.0449 0.4296c0.2637 0.0977 0.5079 0.0391 0.6934-0.1757 0.1855-0.2149 0.2051-0.459 0.0488-0.7032l-0.6054-0.957c0.2636-0.4004 0.498-0.8105 0.7129-1.2305l1.123 0.0391c0.2832 0.0098 0.498-0.127 0.5957-0.4004 0.0977-0.2539 0.0293-0.498-0.1953-0.6641l-0.9082-0.6933c0.1269-0.459 0.2051-0.9278 0.2539-1.416l1.0742-0.3418c0.2734-0.0879 0.4297-0.2832 0.4297-0.5664s-0.1563-0.4883-0.4297-0.5664l-1.0742-0.34184c-0.0488-0.48828-0.127-0.95703-0.2539-1.416l0.8984-0.69336c0.2344-0.16602 0.293-0.41016 0.2051-0.67383-0.0977-0.27344-0.3125-0.40039-0.5957-0.39063l-1.123 0.0293c-0.2149-0.41992-0.4493-0.83984-0.7129-1.2305l0.5957-0.94726c0.1562-0.24415 0.1367-0.49805-0.0293-0.7129-0.1953-0.21484-0.4395-0.26367-0.6934-0.16601l-1.0547 0.42969c-0.3418-0.3418-0.7129-0.64453-1.0937-0.91797l0.2441-1.1035c0.0586-0.2832-0.0391-0.50781-0.2734-0.64453-0.2539-0.14648-0.5078-0.10742-0.7129 0.07813l-0.8496 0.75195c-0.4199-0.19531-0.8692-0.35156-1.3379-0.48828l-0.1563-1.123c-0.0293-0.27344-0.205-0.44922-0.4687-0.50781-0.2832-0.048828-0.5078 0.068359-0.6348 0.3125l-0.5371 1.0059c-0.2344-0.00977-0.4687-0.01953-0.7129-0.01953-0.2344 0-0.4687 0.00976-0.7129 0.01953l-0.52732-0.9961c-0.13672-0.25391-0.36133-0.36133-0.625-0.32227-0.2832 0.048828-0.44922 0.23437-0.48828 0.50781l-0.16602 1.123c-0.45898 0.13672-0.9082 0.30273-1.3379 0.49804l-0.83007-0.76171c-0.20508-0.19532-0.45899-0.21485-0.7129-0.07813-0.24414 0.13672-0.33203 0.37109-0.27343 0.64453l0.23437 1.1133c-0.39062 0.27344-0.75195 0.57618-1.0938 0.90821l-1.0449-0.42969c-0.25391-0.10742-0.50781-0.03906-0.69336 0.17578-0.18555 0.20508-0.19531 0.45898-0.03906 0.70313l0.60547 0.95703c-0.27344 0.39062-0.50782 0.81054-0.71289 1.2305l-1.123-0.03907c-0.29297-0.01953-0.49805 0.12696-0.5957 0.39063-0.10742 0.26367-0.029297 0.50781 0.19531 0.67383l0.89844 0.69336c-0.11719 0.45898-0.20508 0.92773-0.24414 1.416l-1.084 0.34184c-0.27344 0.0781-0.41992 0.2832-0.41992 0.5664s0.14648 0.4785 0.41992 0.5664l1.084 0.3418c0.03906 0.4882 0.12695 0.957 0.24414 1.416l-0.89844 0.6933c-0.22461 0.1661-0.2832 0.4102-0.20508 0.6739 0.10742 0.2734 0.3125 0.4004 0.5957 0.3906l1.1328-0.0391c0.20507 0.4297 0.43945 0.8399 0.71289 1.2403l-0.60547 0.9472c-0.15625 0.2442-0.12695 0.4981 0.03906 0.7032 0.19531 0.2246 0.43945 0.2734 0.69336 0.1757l1.0449-0.4394c0.3418 0.3418 0.71289 0.6445 1.0938 0.9277l-0.23437 1.1035c-0.0586 0.2735 0.03906 0.5078 0.27343 0.6446 0.25391 0.1465 0.50782 0.1172 0.70313-0.0782l0.84961-0.7617c0.42969 0.2051 0.87891 0.3614 1.3379 0.4883l0.15625 1.1231c0.03906 0.2832 0.21484 0.4589 0.47852 0.5175 0.2832 0.0489 0.49804-0.0683 0.63476-0.3222l0.52732-1.0059c0.2442 0.0195 0.4785 0.0293 0.7129 0.0293zm0-1.6211c-4.2578 0-7.7148-3.457-7.7148-7.7148 0-4.2676 3.457-7.7149 7.7148-7.7149 4.2676 0 7.7149 3.4473 7.7149 7.7149 0 4.2578-3.4473 7.7148-7.7149 7.7148zm-1.6992-9.209 1.1523-0.73242-3.2617-5.5957-1.2012 0.67383zm3.877 2.1582h6.4941v-1.3476h-6.4941zm-2.7051 1.5918-1.1426-0.7422-3.4375 5.6055 1.1914 0.7031zm0.5371 0.3028c1.416 0 2.5586-1.1426 2.5586-2.5586s-1.1426-2.5586-2.5586-2.5586-2.5586 1.1426-2.5586 2.5586 1.1426 2.5586 2.5586 2.5586zm0-1.4649c-0.6055 0-1.0938-0.4883-1.0938-1.0937 0-0.6055 0.48827-1.0938 1.0938-1.0938 0.6054 0 1.0937 0.48829 1.0937 1.0938 0 0.6054-0.4883 1.0937-1.0937 1.0937z" fill="#fff"/>
</svg>

<?xml version="1.0" encoding="UTF-8"?>
<!--Generator: Apple Native CoreSVG 341-->
<!DOCTYPE svg
PUBLIC "-//W3C//DTD SVG 1.1//EN"
       "http://www.w3.org/Graphics/SVG/1.1/DTD/svg11.dtd">
<svg version="1.1" xmlns="http://www.w3.org/2000/svg" xmlns:xlink="http://www.w3.org/1999/xlink" viewBox="0 0 21.9531 21.3011">
 <g>
  <rect height="21.3011" opacity="0" width="21.9531" x="0" y="0"/>
  <path d="M10.791 19.9816C11.0352 19.9816 11.2695 19.9718 11.5039 19.9523L12.041 20.9582C12.168 21.2121 12.3926 21.3097 12.666 21.2804C12.9492 21.2316 13.1152 21.0461 13.1445 20.7726L13.3105 19.6398C13.7793 19.5129 14.2188 19.3468 14.6484 19.1515L15.4883 19.9132C15.6934 20.1086 15.9473 20.1183 16.1914 19.9914C16.4355 19.8546 16.5332 19.6203 16.4746 19.3468L16.2305 18.2336C16.6211 17.9601 16.9824 17.6476 17.3242 17.3254L18.3691 17.755C18.6328 17.8527 18.877 17.7941 19.0625 17.5793C19.248 17.3644 19.2676 17.1203 19.1113 16.8761L18.5059 15.9191C18.7695 15.5187 19.0039 15.1086 19.2188 14.6886L20.3418 14.7277C20.625 14.7375 20.8398 14.6007 20.9375 14.3273C21.0352 14.0734 20.9668 13.8293 20.7422 13.6632L19.834 12.9699C19.9609 12.5109 20.0391 12.0421 20.0879 11.5539L21.1621 11.2121C21.4355 11.1242 21.5918 10.9289 21.5918 10.6457C21.5918 10.3625 21.4355 10.1574 21.1621 10.0793L20.0879 9.73746C20.0391 9.24918 19.9609 8.78043 19.834 8.32145L20.7324 7.62809C20.9668 7.46207 21.0254 7.21793 20.9375 6.95426C20.8398 6.68082 20.625 6.55387 20.3418 6.56363L19.2188 6.59293C19.0039 6.17301 18.7695 5.75309 18.5059 5.36246L19.1016 4.4152C19.2578 4.17105 19.2383 3.91715 19.0723 3.7023C18.877 3.48746 18.6328 3.43863 18.3789 3.53629L17.3242 3.96598C16.9824 3.62418 16.6113 3.32145 16.2305 3.04801L16.4746 1.94449C16.5332 1.66129 16.4355 1.43668 16.2012 1.29996C15.9473 1.15348 15.6934 1.19254 15.4883 1.37809L14.6387 2.13004C14.2188 1.93473 13.7695 1.77848 13.3008 1.64176L13.1445 0.518711C13.1152 0.245273 12.9395 0.0694922 12.6758 0.0108985C12.3926-0.0379296 12.168 0.0792579 12.041 0.323398L11.5039 1.32926C11.2695 1.31949 11.0352 1.30973 10.791 1.30973C10.5566 1.30973 10.3223 1.31949 10.0781 1.32926L9.55078 0.333164C9.41406 0.0792579 9.18945-0.028164 8.92578 0.0108985C8.64258 0.0597266 8.47656 0.245273 8.4375 0.518711L8.27148 1.64176C7.8125 1.77848 7.36328 1.94449 6.93359 2.1398L6.10352 1.37809C5.89844 1.18277 5.64453 1.16324 5.39062 1.29996C5.14648 1.43668 5.05859 1.67105 5.11719 1.94449L5.35156 3.05777C4.96094 3.33121 4.59961 3.63395 4.25781 3.96598L3.21289 3.53629C2.95898 3.42887 2.70508 3.49723 2.51953 3.71207C2.33398 3.91715 2.32422 4.17105 2.48047 4.4152L3.08594 5.37223C2.8125 5.76285 2.57812 6.18277 2.37305 6.6027L1.25 6.56363C0.957031 6.5441 0.751953 6.69059 0.654297 6.95426C0.546875 7.21793 0.625 7.46207 0.849609 7.62809L1.74805 8.32145C1.63086 8.78043 1.54297 9.24918 1.50391 9.73746L0.419922 10.0793C0.146484 10.1574 0 10.3625 0 10.6457C0 10.9289 0.146484 11.1242 0.419922 11.2121L1.50391 11.5539C1.54297 12.0421 1.63086 12.5109 1.74805 12.9699L0.849609 13.6632C0.625 13.8293 0.566406 14.0734 0.644531 14.3371C0.751953 14.6105 0.957031 14.7375 1.24023 14.7277L2.37305 14.6886C2.57812 15.1183 2.8125 15.5285 3.08594 15.9289L2.48047 16.8761C2.32422 17.1203 2.35352 17.3742 2.51953 17.5793C2.71484 17.8039 2.95898 17.8527 3.21289 17.755L4.25781 17.3156C4.59961 17.6574 4.9707 17.9601 5.35156 18.2433L5.11719 19.3468C5.05859 19.6203 5.15625 19.8546 5.39062 19.9914C5.64453 20.1379 5.89844 20.1086 6.09375 19.9132L6.94336 19.1515C7.37305 19.3566 7.82227 19.5129 8.28125 19.6398L8.4375 20.7629C8.47656 21.0461 8.65234 21.2218 8.91602 21.2804C9.19922 21.3293 9.41406 21.2121 9.55078 20.9582L10.0781 19.9523C10.3223 19.9718 10.5566 19.9816 10.791 19.9816ZM10.791 18.3605C6.5332 18.3605 3.07617 14.9035 3.07617 10.6457C3.07617 6.37809 6.5332 2.93082 10.791 2.93082C15.0586 2.93082 18.5059 6.37809 18.5059 10.6457C18.5059 14.9035 15.0586 18.3605 10.791 18.3605ZM9.0918 9.15152L10.2441 8.4191L6.98242 2.8234L5.78125 3.49723ZM12.9688 11.3097L19.4629 11.3097L19.4629 9.96207L12.9688 9.96207ZM10.2637 12.9015L9.12109 12.1593L5.68359 17.7648L6.875 18.4679ZM10.8008 13.2043C12.2168 13.2043 13.3594 12.0617 13.3594 10.6457C13.3594 9.22965 12.2168 8.08707 10.8008 8.08707C9.38477 8.08707 8.24219 9.22965 8.24219 10.6457C8.24219 12.0617 9.38477 13.2043 10.8008 13.2043ZM10.8008 11.7394C10.1953 11.7394 9.70703 11.2511 9.70703 10.6457C9.70703 10.0402 10.1953 9.55191 10.8008 9.55191C11.4062 9.55191 11.8945 10.0402 11.8945 10.6457C11.8945 11.2511 11.4062 11.7394 10.8008 11.7394Z" fill="white"/>
 </g>
</svg>
